; generated by PrusaSlicer 2.4.1+win64 on 2022-04-22 at 22:03:18 UTC


;
;

;
;
; 

; external perimeters extrusion width = 0.45mm
; perimeters extrusion width = 0.45mm
; infill extrusion width = 0.45mm
; solid infill extrusion width = 0.45mm
; top infill extrusion width = 0.40mm
; first layer extrusion width = 0.42mm

M73 P0 R76
M201 X2500 Y2500 Z400 E5000 ; sets maximum accelerations, mm/sec^2
M203 X180 Y180 Z12 E80 ; sets maximum feedrates, mm / sec
M204 P1250 R1250 T2500 ; sets acceleration (P, T) and retract acceleration (R), mm/sec^2
M205 X8.00 Y8.00 Z2.00 E10.00 ; sets the jerk limits, mm/sec
M205 S0 T0 ; sets the minimum extruding and travel feed rate, mm/sec
M107
;TYPE:Custom
M862.3 P "MINI" ; printer model check
G90 ; use absolute coordinates
M83 ; extruder relative mode
M104 S170 ; set extruder temp for bed leveling
M140 S60 ; set bed temp
M109 R170 ; wait for bed leveling temp
M190 S60 ; wait for bed temp
M204 T1250 ; set travel acceleration
G28 ; home all without mesh bed level
G29 ; mesh bed leveling 
M204 T2500 ; restore travel acceleration
M104 S215 ; set extruder temp
G92 E0
G1 Y-2 X179 F2400
G1 Z3 F720
M109 S215 ; wait for extruder temp

; intro line
G1 X170 F1000
G1 Z0.2 F720
G1 X110 E8 F900
G1 X40 E10 F700
G92 E0

M221 S95 ; set flow
G21 ; set units to millimeters
G90 ; use absolute coordinates
M83 ; use relative distances for extrusion
M900 K0.2 ; Filament gcode LA 1.5
; ; Filament gcode LA 1.0
M107
;LAYER_CHANGE
;Z:0.2
;HEIGHT:0.2
;BEFORE_LAYER_CHANGE
G92 E0.0
;0.2


G1 E-3.2 F4200
G1 Z.2 F720
;AFTER_LAYER_CHANGE
;0.2
G1 Z.4
G1 X12.833 Y84.103 F9000
G1 Z.2 F720
G1 E3.2 F2400
M204 P800
;TYPE:Skirt/Brim
;WIDTH:0.42
G1 F900
G1 X13.84 Y84.179 E.03166
G1 X25.62 Y85.596 E.37203
G1 X26.317 Y85.764 E.02248
G1 X29.845 Y87.061 E.11785
G1 X31.135 Y87.955 E.04923
G1 X31.83 Y89.363 E.04923
G1 X31.754 Y90.931 E.04923
G1 X30.926 Y92.265 E.04923
G1 X29.555 Y93.03 E.04923
G1 X28.764 Y93.131 E.02499
G1 X12.599 Y93.131 E.50687
G1 X11.079 Y92.738 E.04923
G1 X9.941 Y91.656 E.04923
G1 X9.467 Y90 E.054
G1 X9.467 Y87.226 E.08699
G1 X9.861 Y85.706 E.04923
G1 X10.943 Y84.568 E.04923
G1 X12.775 Y84.117 E.05915
M204 P1000
G1 X12.805 Y84.479 F9000
M204 P800
G1 F900
G1 X13.812 Y84.555 E.03166
G1 X25.574 Y85.97 E.37146
G1 X26.187 Y86.118 E.01977
G1 X29.715 Y87.415 E.11785
G1 X30.91 Y88.273 E.04612
G1 X31.493 Y89.623 E.04612
G1 X31.298 Y91.081 E.04612
G1 X30.38 Y92.23 E.04612
G1 X28.764 Y92.754 E.05326
G1 X12.599 Y92.754 E.50687
G1 X11.181 Y92.361 E.04612
G1 X10.168 Y91.295 E.04612
G1 X9.844 Y90 E.04186
G1 X9.844 Y87.226 E.08699
G1 X10.237 Y85.808 E.04612
G1 X11.303 Y84.795 E.04612
G1 X12.746 Y84.491 E.04622
M204 P1000
G1 X12.776 Y84.855 F9000
M204 P800
G1 F900
G1 X13.783 Y84.931 E.03166
G1 X25.528 Y86.344 E.37089
G1 X26.057 Y86.472 E.01707
G1 X29.585 Y87.769 E.11785
G1 X30.676 Y88.587 E.04278
G1 X31.138 Y89.871 E.04278
G1 X30.818 Y91.198 E.04278
G1 X29.821 Y92.129 E.04278
G1 X28.764 Y92.377 E.03403
G1 X12.599 Y92.377 E.50687
G1 X11.292 Y91.985 E.04278
G1 X10.415 Y90.94 E.04278
G1 X10.221 Y90 E.03008
G1 X10.221 Y87.226 E.08699
G1 X10.613 Y85.918 E.04278
G1 X11.659 Y85.042 E.04278
G1 X12.717 Y84.865 E.03365
M204 P1000
; printing object Hardware-Final_OnlyPlatic.stl id:0 copy 0
G1 E-2.24 F4200
;WIPE_START
G1 F7200
G1 X13.783 Y84.931 E-.59194
G1 X14.357 Y85 E-.32006
;WIPE_END
G1 E-.048 F4200
G1 Z.4 F720
G1 X12.809 Y88.913 F9000
G1 Z.2 F720
G1 E3.2 F2400
M204 P800
;TYPE:External perimeter
G1 F900
G1 X15.214 Y89.79 E.08028
G1 X12.809 Y89.79 E.07542
G1 X12.809 Y88.973 E.02563
M204 P1000
G1 X12.502 Y89.169 F9000
G1 X12.997 Y89.398
M204 P800
;TYPE:Gap fill
;WIDTH:0.388236
G1 F900
G1 X13.169 Y89.429 E.00502
M204 P1000
M204 P800
;WIDTH:0.339083
G1 X13.341 Y89.459 E.0043
M204 P1000
M204 P800
;WIDTH:0.289931
G1 X13.513 Y89.489 E.00359
M204 P1000
M204 P800
;WIDTH:0.240778
G1 X13.685 Y89.52 E.00287
M204 P1000
M204 P800
;WIDTH:0.191625
G1 X13.857 Y89.55 E.00216
M204 P1000
M204 P800
;WIDTH:0.142473
G1 X14.029 Y89.581 E.00145
M204 P1000
; stop printing object Hardware-Final_OnlyPlatic.stl id:0 copy 0
M106 S84.15
;LAYER_CHANGE
;Z:0.35
;HEIGHT:0.15
;BEFORE_LAYER_CHANGE
G92 E0.0
;0.35


G1 E-2.24 F4200
;WIPE_START
G1 F7200
G1 X13.857 Y89.55 E-.09679
;WIPE_END
G1 E-.86321 F4200
G1 Z.4 F720
;AFTER_LAYER_CHANGE
;0.35
G1 X13.857 Y93.131 F9000
G1 Z.35 F720
G1 E3.2 F2400
;TYPE:Skirt/Brim
;WIDTH:0.42
G1 F900
G1 X12.599 Y93.131 E.03044
G1 X11.079 Y92.738 E.03797
G1 X9.941 Y91.656 E.03797
G1 X9.467 Y90 E.04165
G1 X9.467 Y87.226 E.0671
G1 X9.861 Y85.706 E.03797
G1 X10.943 Y84.568 E.03797
G1 X12.833 Y84.103 E.04707
G1 X13.84 Y84.179 E.02442
G1 X25.62 Y85.596 E.28696
G1 X26.317 Y85.764 E.01734
G1 X29.845 Y87.061 E.0909
G1 X31.135 Y87.955 E.03797
G1 X31.83 Y89.363 E.03797
G1 X31.754 Y90.931 E.03797
G1 X30.926 Y92.265 E.03797
G1 X29.555 Y93.03 E.03797
G1 X28.764 Y93.131 E.01928
G1 X13.917 Y93.131 E.35908
G1 X13.917 Y92.754 F9000
G1 F900
G1 X12.599 Y92.754 E.03189
G1 X11.181 Y92.361 E.03557
G1 X10.168 Y91.295 E.03557
G1 X9.844 Y90 E.03229
G1 X9.844 Y87.226 E.0671
G1 X10.237 Y85.808 E.03557
G1 X11.303 Y84.795 E.03557
G1 X12.805 Y84.479 E.0371
G1 X13.812 Y84.555 E.02442
G1 X25.574 Y85.97 E.28652
G1 X26.187 Y86.118 E.01525
G1 X29.715 Y87.415 E.0909
G1 X30.91 Y88.273 E.03557
G1 X31.493 Y89.623 E.03557
G1 X31.298 Y91.081 E.03557
G1 X30.38 Y92.23 E.03557
G1 X28.764 Y92.754 E.04108
G1 X13.977 Y92.754 E.35763
G1 X13.977 Y92.377 F9000
G1 F900
G1 X12.599 Y92.377 E.03334
G1 X11.292 Y91.985 E.033
G1 X10.415 Y90.94 E.033
G1 X10.221 Y90 E.02321
G1 X10.221 Y87.226 E.0671
G1 X10.613 Y85.918 E.033
G1 X11.659 Y85.042 E.033
G1 X12.776 Y84.855 E.02741
G1 X13.783 Y84.931 E.02442
G1 X25.528 Y86.344 E.28609
G1 X26.057 Y86.472 E.01316
G1 X29.585 Y87.769 E.0909
G1 X30.676 Y88.587 E.033
G1 X31.138 Y89.871 E.033
G1 X30.818 Y91.198 E.033
G1 X29.821 Y92.129 E.033
G1 X28.764 Y92.377 E.02625
G1 X14.037 Y92.377 E.35618
; printing object Hardware-Final_OnlyPlatic.stl id:0 copy 0
G1 E-2.24 F4200
;WIPE_START
G1 F7200
M73 P0 R75
G1 X12.599 Y92.377 E-.79718
G1 X12.4 Y92.318 E-.11482
;WIPE_END
G1 E-.048 F4200
G1 Z.55 F720
G1 X13.241 Y89.357 F9000
G1 Z.35 F720
G1 E3.2 F2400
M204 P800
;TYPE:Perimeter
;WIDTH:0.45
G1 F900
G1 X13.241 Y88.625 E.01908
;TYPE:Overhang perimeter
G1 F1500
G1 X13.241 Y88.561 E.00168
G1 X19.32 Y89.311 E.15959
G1 X19.447 Y89.357 E.00352
G1 X15.233 Y89.357 E.10979
;TYPE:Perimeter
G1 F900
G1 X13.301 Y89.357 E.05034
M204 P1000
G1 X12.824 Y89.775 F9000
M204 P800
;TYPE:External perimeter
G1 F900
G1 X12.824 Y88.471 E.03397
;TYPE:Overhang perimeter
G1 F1500
G1 X12.824 Y88.088 E.00999
G1 X19.419 Y88.902 E.17316
G1 X21.795 Y89.775 E.06594
G1 X16.37 Y89.775 E.14134
;TYPE:External perimeter
G1 F900
G1 X12.884 Y89.775 E.09084
M204 P1000
G1 X13.45 Y88.973 F9000
;TYPE:Gap fill
;WIDTH:0.361927
G1 F900
G1 X13.856 Y88.998 E.00836
;WIDTH:0.315971
G1 X14.262 Y89.023 E.0072
;WIDTH:0.270015
G1 X14.668 Y89.048 E.00603
;WIDTH:0.224059
G1 X15.074 Y89.073 E.00487
;WIDTH:0.178103
G1 X15.48 Y89.098 E.0037
;WIDTH:0.132146
G1 X15.886 Y89.123 E.00253
G1 E-2.24 F4200
;WIPE_START
G1 F7200
G1 X15.48 Y89.098 E-.22536
;WIPE_END
G1 E-.73464 F4200
G1 Z.55 F720
G1 X19.653 Y89.394 F9000
G1 Z.35 F720
G1 E3.2 F2400
;WIDTH:0.325411
G1 F900
G1 X19.821 Y89.424 E.00313
;WIDTH:0.277567
G1 X19.99 Y89.454 E.00262
;WIDTH:0.229723
G1 X20.158 Y89.484 E.00211
;WIDTH:0.181879
G1 X20.327 Y89.514 E.0016
;WIDTH:0.134034
G1 X20.496 Y89.544 E.00109
; stop printing object Hardware-Final_OnlyPlatic.stl id:0 copy 0
M106 S170.85
;LAYER_CHANGE
;Z:0.5
;HEIGHT:0.15
;BEFORE_LAYER_CHANGE
G92 E0.0
;0.5


G1 E-2.24 F4200
;WIPE_START
G1 F7200
G1 X20.327 Y89.514 E-.0949
;WIPE_END
G1 E-.8651 F4200
G1 Z.55 F720
;AFTER_LAYER_CHANGE
;0.5
G1 X20.327 Y93.131 F9000
G1 Z.5 F720
G1 E3.2 F2400
;TYPE:Skirt/Brim
;WIDTH:0.42
G1 F1015
G1 X12.599 Y93.131 E.18691
G1 X11.079 Y92.738 E.03797
G1 X9.941 Y91.656 E.03797
G1 X9.467 Y90 E.04165
G1 X9.467 Y87.226 E.0671
G1 X9.861 Y85.706 E.03797
G1 X10.943 Y84.568 E.03797
G1 X12.833 Y84.103 E.04707
G1 X13.84 Y84.179 E.02442
G1 X25.62 Y85.596 E.28696
G1 X26.317 Y85.764 E.01734
G1 X29.845 Y87.061 E.0909
G1 X31.135 Y87.955 E.03797
G1 X31.83 Y89.363 E.03797
G1 X31.754 Y90.931 E.03797
G1 X30.926 Y92.265 E.03797
G1 X29.555 Y93.03 E.03797
G1 X28.764 Y93.131 E.01928
G1 X20.387 Y93.131 E.20261
G1 X20.387 Y92.754 F9000
G1 F1015
G1 X12.599 Y92.754 E.18836
G1 X11.181 Y92.361 E.03557
G1 X10.168 Y91.295 E.03557
G1 X9.844 Y90 E.03229
G1 X9.844 Y87.226 E.0671
G1 X10.237 Y85.808 E.03557
G1 X11.303 Y84.795 E.03557
G1 X12.805 Y84.479 E.0371
M73 P1 R75
G1 X13.812 Y84.555 E.02442
G1 X25.574 Y85.97 E.28652
G1 X26.187 Y86.118 E.01525
G1 X29.715 Y87.415 E.0909
G1 X30.91 Y88.273 E.03557
G1 X31.493 Y89.623 E.03557
G1 X31.298 Y91.081 E.03557
G1 X30.38 Y92.23 E.03557
G1 X28.764 Y92.754 E.04108
G1 X20.447 Y92.754 E.20115
G1 X20.447 Y92.377 F9000
G1 F1015
G1 X12.599 Y92.377 E.18981
G1 X11.292 Y91.985 E.033
G1 X10.415 Y90.94 E.033
G1 X10.221 Y90 E.02321
G1 X10.221 Y87.226 E.0671
G1 X10.613 Y85.918 E.033
G1 X11.659 Y85.042 E.033
G1 X12.776 Y84.855 E.02741
G1 X13.783 Y84.931 E.02442
G1 X25.528 Y86.344 E.28609
G1 X26.057 Y86.472 E.01316
G1 X29.585 Y87.769 E.0909
G1 X30.676 Y88.587 E.033
G1 X31.138 Y89.871 E.033
G1 X30.818 Y91.198 E.033
G1 X29.821 Y92.129 E.033
G1 X28.764 Y92.377 E.02625
G1 X20.507 Y92.377 E.1997
; printing object Hardware-Final_OnlyPlatic.stl id:0 copy 0
G1 E-2.24 F4200
;WIPE_START
G1 F7200
G1 X18.861 Y92.377 E-.912
;WIPE_END
G1 E-.048 F4200
G1 Z.7 F720
G1 X13.241 Y89.357 F9000
G1 Z.5 F720
G1 E3.2 F2400
M204 P800
;TYPE:Perimeter
;WIDTH:0.45
G1 F1015
G1 X13.241 Y87.918 E.03749
G1 X14.218 Y87.992 E.02553
G1 X20.174 Y88.726 E.15635
;TYPE:Overhang perimeter
G1 F1500
G1 X25.084 Y89.332 E.12893
G1 X25.153 Y89.357 E.00189
G1 X21.89 Y89.357 E.08501
;TYPE:Perimeter
G1 F1015
G1 X13.301 Y89.357 E.22378
M204 P1000
G1 X12.824 Y89.775 F9000
M204 P800
;TYPE:External perimeter
G1 F1015
G1 X12.824 Y87.66 E.05511
;TYPE:Overhang perimeter
G1 F1500
G1 X12.824 Y87.468 E.005
G1 X14.26 Y87.576 E.03752
G1 X25.183 Y88.923 E.28679
G1 X27.5 Y89.775 E.06431
G1 X23.026 Y89.775 E.11657
;TYPE:External perimeter
G1 F1015
G1 X12.884 Y89.775 E.26428
M204 P1000
G1 E-2.24 F4200
;WIPE_START
G1 F7200
G1 X12.837 Y88.13 E-.912
;WIPE_END
G1 E-.048 F4200
G1 Z.7 F720
G1 X17.517 Y88.525 F9000
G1 Z.5 F720
G1 E3.2 F2400
;TYPE:Solid infill
;WIDTH:0.494101
G1 F1015
G1 X18.036 Y89.044 E.02114
G1 X17.383 Y89.044 E.01882
G1 X16.988 Y88.649 E.01608
G1 X16.243 Y88.557 E.02163
G1 X16.73 Y89.044 E.01982
G1 X16.076 Y89.044 E.01882
G1 X15.498 Y88.465 E.02357
G1 X14.753 Y88.373 E.02163
G1 X15.423 Y89.044 E.02731
G1 X14.77 Y89.044 E.01882
G1 X14.017 Y88.291 E.03068
G1 X13.555 Y88.256 E.01335
G1 X13.555 Y88.482 E.0065
G1 X14.305 Y89.232 E.03055
G1 E-2.24 F4200
;WIPE_START
G1 F7200
G1 X13.555 Y88.482 E-.58779
G1 X13.555 Y88.256 E-.12508
G1 X13.913 Y88.283 E-.19913
;WIPE_END
G1 E-.048 F4200
G1 Z.7 F720
G1 X18.696 Y88.952 F9000
G1 Z.5 F720
G1 E3.2 F2400
;TYPE:Gap fill
;WIDTH:0.401708
G1 F1015
G1 X19.093 Y88.977 E.00916
;WIDTH:0.356634
G1 X19.49 Y89.001 E.00805
;WIDTH:0.31156
G1 X19.887 Y89.025 E.00693
;WIDTH:0.266486
G1 X20.284 Y89.05 E.00581
;WIDTH:0.221412
G1 X20.681 Y89.074 E.00469
;WIDTH:0.176338
G1 X21.078 Y89.099 E.00358
;WIDTH:0.131264
G1 X21.475 Y89.123 E.00246
G1 E-2.24 F4200
;WIPE_START
G1 F7200
G1 X21.078 Y89.099 E-.22039
;WIPE_END
G1 E-.73961 F4200
G1 Z.7 F720
G1 X25.358 Y89.394 F9000
G1 Z.5 F720
G1 E3.2 F2400
;WIDTH:0.325412
G1 F1015
G1 X25.527 Y89.424 E.00313
;WIDTH:0.277568
G1 X25.695 Y89.454 E.00262
;WIDTH:0.229723
G1 X25.864 Y89.484 E.00211
;WIDTH:0.181879
G1 X26.033 Y89.514 E.0016
;WIDTH:0.134035
G1 X26.201 Y89.544 E.00109
; stop printing object Hardware-Final_OnlyPlatic.stl id:0 copy 0
M106 S255
;LAYER_CHANGE
;Z:0.65
;HEIGHT:0.15
;BEFORE_LAYER_CHANGE
G92 E0.0
;0.65


G1 E-2.24 F4200
;WIPE_START
G1 F7200
G1 X26.033 Y89.514 E-.0949
;WIPE_END
G1 E-.8651 F4200
G1 Z.7 F720
;AFTER_LAYER_CHANGE
;0.65
; printing object Hardware-Final_OnlyPlatic.stl id:0 copy 0
G1 X13.241 Y89.357 F9000
G1 Z.65 F720
G1 E3.2 F2400
M204 P800
;TYPE:Perimeter
;WIDTH:0.45
G1 F900
G1 X13.241 Y87.516 E.04797
G1 X20.165 Y88.036 E.1809
G1 X25.938 Y88.748 E.15156
;TYPE:Overhang perimeter
G1 F1500
G1 X30.858 Y89.357 E.12918
G1 X27.595 Y89.357 E.08501
;TYPE:Perimeter
G1 F900
G1 X13.301 Y89.357 E.37244
M204 P1000
G1 X12.824 Y89.775 F9000
M204 P800
;TYPE:External perimeter
G1 F900
G1 X12.824 Y87.066 E.07059
G1 X14.799 Y87.214 E.05161
;TYPE:Overhang perimeter
G1 F1500
G1 X20.206 Y87.62 E.14129
G1 X30.948 Y88.945 E.282
G1 X33.206 Y89.775 E.06268
G1 X28.732 Y89.775 E.11657
;TYPE:External perimeter
G1 F900
G1 X12.884 Y89.775 E.41294
M204 P1000
G1 E-2.24 F4200
;WIPE_START
G1 F7200
G1 X12.847 Y88.13 E-.912
;WIPE_END
G1 E-.048 F4200
G1 Z.85 F720
G1 X23.295 Y89.232 F9000
G1 Z.65 F720
G1 E3.2 F2400
;TYPE:Solid infill
;WIDTH:0.451097
G1 F900
G1 X23.734 Y88.793 E.01623
G1 X23.207 Y88.727 E.01388
G1 X22.891 Y89.044 E.01169
G1 X22.298 Y89.044 E.01548
G1 X22.68 Y88.662 E.0141
G1 X22.152 Y88.597 E.01388
G1 X21.706 Y89.044 E.0165
G1 X21.113 Y89.044 E.01548
G1 X21.625 Y88.532 E.01891
G1 X21.098 Y88.467 E.01388
G1 X20.521 Y89.044 E.02132
G1 X19.928 Y89.044 E.01548
G1 X20.571 Y88.402 E.02373
G1 X20.039 Y88.341 E.01397
G1 X19.336 Y89.044 E.02598
G1 X18.744 Y89.044 E.01548
G1 X19.488 Y88.299 E.02751
G1 X18.937 Y88.258 E.01444
G1 X18.151 Y89.044 E.02904
G1 X17.559 Y89.044 E.01548
G1 X18.386 Y88.216 E.03057
G1 X17.835 Y88.175 E.01444
G1 X16.966 Y89.044 E.03209
G1 X16.374 Y89.044 E.01548
G1 X17.284 Y88.134 E.03362
G1 X16.733 Y88.092 E.01444
G1 X15.781 Y89.044 E.03515
G1 X15.189 Y89.044 E.01548
G1 X16.182 Y88.051 E.03668
G1 X15.631 Y88.01 E.01444
G1 X14.597 Y89.044 E.0382
G1 X14.004 Y89.044 E.01548
G1 X15.08 Y87.968 E.03973
G1 X14.529 Y87.927 E.01444
G1 X13.555 Y88.901 E.03598
G1 X13.555 Y88.308 E.01548
G1 X14.153 Y87.71 E.0221
G1 E-2.24 F4200
;WIPE_START
G1 F7200
G1 X13.555 Y88.308 E-.4688
G1 X13.555 Y88.901 E-.3283
G1 X13.701 Y88.754 E-.1149
;WIPE_END
G1 E-.048 F4200
G1 Z.85 F720
G1 X24.286 Y88.952 F9000
G1 Z.65 F720
G1 E3.2 F2400
;TYPE:Gap fill
;WIDTH:0.401708
G1 F900
G1 X24.683 Y88.977 E.00916
;WIDTH:0.356634
G1 X25.08 Y89.001 E.00805
;WIDTH:0.31156
G1 X25.477 Y89.025 E.00693
;WIDTH:0.266486
G1 X25.874 Y89.05 E.00581
;WIDTH:0.221412
G1 X26.271 Y89.074 E.00469
;WIDTH:0.176338
G1 X26.668 Y89.099 E.00358
;WIDTH:0.131264
G1 X27.065 Y89.123 E.00246
G1 E-2.24 F4200
;WIPE_START
G1 F7200
G1 X26.668 Y89.099 E-.22039
;WIPE_END
G1 E-.73961 F4200
G1 Z.85 F720
G1 X31.064 Y89.394 F9000
G1 Z.65 F720
G1 E3.2 F2400
;WIDTH:0.325413
G1 F900
G1 X31.232 Y89.424 E.00313
;WIDTH:0.277568
G1 X31.401 Y89.454 E.00262
;WIDTH:0.229724
G1 X31.57 Y89.484 E.00211
;WIDTH:0.181879
G1 X31.738 Y89.514 E.0016
;WIDTH:0.134035
G1 X31.907 Y89.544 E.00109
; stop printing object Hardware-Final_OnlyPlatic.stl id:0 copy 0
;LAYER_CHANGE
;Z:0.8
;HEIGHT:0.15
;BEFORE_LAYER_CHANGE
G92 E0.0
;0.8


G1 E-2.24 F4200
;WIPE_START
G1 F7200
G1 X31.738 Y89.514 E-.0949
;WIPE_END
G1 E-.8651 F4200
G1 Z.85 F720
;AFTER_LAYER_CHANGE
;0.8
; printing object Hardware-Final_OnlyPlatic.stl id:0 copy 0
G1 X13.241 Y89.357 F9000
G1 Z.8 F720
G1 E3.2 F2400
M204 P800
;TYPE:Perimeter
;WIDTH:0.45
G1 F900
G1 X13.241 Y87.114 E.05845
G1 X26.111 Y88.08 E.33628
G1 X31.702 Y88.769 E.14678
;TYPE:Overhang perimeter
G1 F1500
G1 X36.466 Y89.357 E.12507
G1 X33.301 Y89.357 E.08247
;TYPE:Perimeter
G1 F900
G1 X13.301 Y89.357 E.5211
M204 P1000
G1 X12.824 Y89.775 F9000
M204 P800
;TYPE:External perimeter
G1 F900
G1 X12.824 Y86.664 E.08107
G1 X20.745 Y87.258 E.20698
;TYPE:Overhang perimeter
G1 F1500
G1 X26.152 Y87.664 E.14129
G1 X36.712 Y88.967 E.27722
G1 X38.911 Y89.775 E.06106
G1 X34.438 Y89.775 E.11657
;TYPE:External perimeter
G1 F900
G1 X12.884 Y89.775 E.56161
M204 P1000
G1 E-2.24 F4200
;WIPE_START
G1 F7200
G1 X12.852 Y88.13 E-.912
;WIPE_END
G1 E-.048 F4200
G1 Z1 F720
G1 X28.771 Y88.534 F9000
G1 Z.8 F720
G1 E3.2 F2400
;TYPE:Solid infill
;WIDTH:0.462971
G1 F900
G1 X29.281 Y89.044 E.01936
G1 X28.672 Y89.044 E.01637
G1 X28.293 Y88.665 E.01441
G1 X27.598 Y88.579 E.01881
G1 X28.063 Y89.044 E.01766
